src/lib/packages/icons/src/assets/filled/users-slash.svg

<svg width="24" height="24" viewBox="0 0 24 24" fill="none" xmlns="http://www.w3.org/2000/svg">
<path d="M21.5301 3.53005L2.53005 22.5301C2.38405 22.6761 2.19202 22.75 2.00002 22.75C1.80802 22.75 1.61599 22.6771 1.46999 22.5301C1.17699 22.2371 1.17699 21.762 1.46999 21.469L2.36501 20.574C1.79801 19.99 1.50002 19.1361 1.50002 18.0191C1.50002 15.4691 2.94002 12.499 7.00002 12.499H10.439L13.848 9.08999C14.265 8.31899 14.5091 7.44405 14.5091 6.49905C14.5091 6.16905 14.479 5.83908 14.419 5.52908C14.399 5.41908 14.4391 5.30905 14.5191 5.24905C15.0691 4.77905 15.789 4.49905 16.559 4.49905C17.104 4.49905 17.609 4.642 18.057 4.881L20.469 2.46902C20.762 2.17602 21.2371 2.17602 21.5301 2.46902C21.8231 2.76202 21.8231 3.23705 21.5301 3.53005ZM19.63 8.75002C19.68 8.58002 19.72 8.41002 19.75 8.25002L17.11 10.89C17.27 10.87 17.43 10.8301 17.59 10.7801C18.54 10.4801 19.32 9.71002 19.63 8.75002ZM18.11 12.2801H16.13C15.96 12.2801 15.83 12.41 15.83 12.58C15.83 12.66 15.8601 12.7401 15.9201 12.7901C15.9301 12.8001 15.94 12.81 15.95 12.82C17.35 14.17 18 16.1 18 18.02C18 18.39 17.9801 18.75 17.9201 19.08C17.9101 19.124 17.907 19.1611 17.907 19.2011C17.907 19.3711 18.04 19.5 18.2 19.5H19.6601C21.4901 19.5 22.5 18.5001 22.5 16.6801C22.5 14.6501 21.35 12.2801 18.11 12.2801ZM9.01003 10.5C11.21 10.5 13.01 8.71002 13.01 6.50002C13.01 4.29002 11.21 2.50002 9.01003 2.50002C6.80003 2.50002 5.01003 4.29002 5.01003 6.50002C5.01003 8.71002 6.80003 10.5 9.01003 10.5ZM14.687 13.705C14.568 13.603 14.3841 13.615 14.2741 13.726L7.01199 20.9881C6.82299 21.1771 6.95702 21.5 7.22402 21.5H13C15.29 21.5 16.5 20.3 16.5 18.02C16.5 16.493 15.978 14.813 14.687 13.705Z" fill="currentColor"/>
</svg>

<svg xmlns="http://www.w3.org/2000/svg" width="24" height="24" fill="none"><path fill="currentColor" d="m21.53 3.53-19 19a.748.748 0 0 1-1.06 0 .75.75 0 0 1 0-1.061l.895-.895c-.567-.584-.865-1.438-.865-2.555 0-2.55 1.44-5.52 5.5-5.52h3.439l3.409-3.409a5.413 5.413 0 0 0 .661-2.59c0-.33-.03-.66-.09-.97a.285.285 0 0 1 .1-.28 3.142 3.142 0 0 1 3.538-.369l2.412-2.412A.75.75 0 0 1 21.53 3.53Zm-1.9 5.22c.05-.17.09-.34.12-.5l-2.64 2.64c.16-.02.32-.06.48-.11.95-.3 1.73-1.07 2.04-2.03Zm-1.52 3.53h-1.98c-.17 0-.3.13-.3.3 0 .08.03.16.09.21l.03.03c1.4 1.35 2.05 3.28 2.05 5.2 0 .37-.02.73-.08 1.06a.521.521 0 0 0-.013.121c0 .17.133.299.293.299h1.46c1.83 0 2.84-1 2.84-2.82 0-2.03-1.15-4.4-4.39-4.4Zm-9.1-1.78c2.2 0 4-1.79 4-4s-1.8-4-4-4c-2.21 0-4 1.79-4 4s1.79 4 4 4Zm5.677 3.205a.307.307 0 0 0-.413.021l-7.262 7.262a.3.3 0 0 0 .212.512H13c2.29 0 3.5-1.2 3.5-3.48 0-1.527-.522-3.207-1.813-4.315Z"/></svg>
